X: 2175
T: Şevk`efzâ Seyir
C: Erol Bingöl
O: Turkey
F: http://compmusic.upf.edu/node/140
N: sevkefza--seyir--turkaksagi--1--erol_bingol
N: makam= sevkefza
N: form= seyir
N: usul= turkaksagi = 5/8
M: 5/8
L: 1/16
K: C _B _7/8d  
Q: 1/4=120
%%MIDI tuningsystem comma53
f4 g4 _7/8a2 | gf efg6  | g2_7/8ag c'_1/4bag f2 | \
w:   |   |   | 
_7/8ag fef6  | 
w:   | 
g4 _7/8a2g2 f2 | fe f_7/8ag2 f2e2  | \
w:   |   | 
d2c2 g2f2 e2 | ed dcc6  | 
w:   |   | 
c4 f4 e2 | f2 a2g2 f2e2  | =d2c2 c4 d2 | \
w:   |   |   | 
cB ABc6  | c2=de f2e2 d2 | 
w:   |   | 
cB2=dc2 _1/4B2_7/8A2  | G2_7/8AG c2_1/4B2 A2 | \
w:   |   | 
GF FEF6  | |


